X:1
T:Title
%%score { ( 1 4 5 ) | ( 2 3 ) }
L:1/8
M:6/8
K:G
V:1 treble nm="Grand Piano"
V:4 treble 
V:5 treble 
V:2 bass 
V:3 bass 
V:1
 z3 z2[Q:1/4=92] D | G2 =F ^D2 C | D2 (3^D/=F/D/ =D2 ^F/G/ | A2 G/F/ ._B3 | G3- G2 _B | %5
 _B2 F F2 A | A2 ^D D3 | CD^D =D2 F/G/ | A6 | c2 _B A2 G/F/ | _B2 G F2 B | _B2 A F2 (3A/B/A/ | %12
 z3 z2 G | G2 G =F2 G | ^D3- D2 G | G2 G F2 D | G6 |] %17
V:2
 z6 | [G,_B,]3 .[G,C]3 | G, _B,2 G, B,2 | z3 z[K:treble] C2 | G,2 _B, D3 | [F,CD]6 | [G,C]6 | %7
 G,3 _B,3 | F,2[K:treble] C D2 c | G,C^D G,CD | G,_B,D F,CD | F,CD F,[K:treble]CD | %12
 G,_B,D[K:bass] G, B,2 | [G,_B,D]6 | [G,C]6 | [G,_B,D]3 .[F,CD]3 | [G,_B,D]6 |] %17
V:3
 x6 | x6 | x6 | F, C2 .F,2[K:treble] A | x6 | x6 | x6 | x6 | x2[K:treble] x4 | x6 | x6 | %11
 x4[K:treble] x2 | x3[K:bass] x3 | x6 | x6 | x6 | x6 |] %17
V:4
 x6 | x6 | x6 | x6 | x6 | x6 | x6 | x6 | x6 | x6 | x6 | x6 | G6 | x6 | x6 | x6 | x6 |] %17
V:5
 x6 | x6 | x6 | x6 | x6 | x6 | x6 | x6 | x6 | x6 | x6 | x6 | z3 z D2 | x6 | x6 | x6 | x6 |] %17

